X:10
T:The Glountane Monument Polkas No. 2
N:The second polka, transcribed in accordion
N:notation on the Glountane Monument outside
N:Patrick O'Keeffe's house.
N:Played by Johnny O'Leary as a two part tune
N:in G as 'The Kenmare Polka' (Terry Moylan,
N:JO'L, No. 297).
Z:ATB
R:polka
M:2/4
L:1/8
K:D
A,|D2 DF|GE AF|D2 EF|GE CA,|
D2 EF|GE AB|cA GE|[1 FD D:|][2 FD DA|]
dc ed|cA AB|cA AB|cA Bc|
dc ed|cA AB|cA GE|[1 ED DA:|][2 ED DE|]
F2 ED|EA AB|cA GE|FD DE|
F2 ED|EA AB|cA GE|[1 D2 DG:|][2 D2 D|]
